X: 4223
T: Bluebird
R: jig
M: 6/8
K: Dmajor
egf|ece e2f|ece gfe|dBG G2A|Bd=c BAG|
A2A ABd|e2e efg|[M:9/8] faf gfe d=cB|[M:6/8] A3:|
|:A3|eaa eaa|eaa a2g|egg egg|egg agg|
eaa eaa|eaa gef|gfe d=cB|A3:|

